Sources/FrostedUI/Resources/Icons.xcassets/thumbUp32.imageset/thumb-up-32.svg

<svg width="32" height="32" viewBox="0 0 32 32" fill="none" xmlns="http://www.w3.org/2000/svg" data-fui-icon="true">
  <path
    d="M15.4814 2.91699C17.5757 2.91721 19.1867 4.78632 18.8633 6.86035L18.2305 10.917H24.3457C27.2535 10.9173 29.4794 13.5071 29.042 16.3818L27.9258 23.7148C27.5726 26.0353 25.5767 27.7498 23.2295 27.75H5C3.84969 27.7498 2.91719 26.8173 2.91699 25.667V15.667C2.91699 14.5165 3.84957 13.5842 5 13.584H8.71484L13.6279 4.0459C13.9856 3.35163 14.7026 2.91707 15.4814 2.91699ZM5 15.084C4.67798 15.0842 4.41699 15.3449 4.41699 15.667V25.667C4.41719 25.9889 4.6781 26.2498 5 26.25H8.25V15.084H5ZM15.4814 4.41699C15.2619 4.41707 15.0613 4.54037 14.9619 4.7334L9.75 14.8496V26.25H23.2295C24.8354 26.2498 26.2007 25.0768 26.4424 23.4893L27.5586 16.1562C27.8579 14.1894 26.3352 12.4173 24.3457 12.417H17.3555C17.1366 12.417 16.9276 12.3205 16.7852 12.1543C16.643 11.9881 16.5807 11.7679 16.6143 11.5518L17.3818 6.62891C17.5626 5.4692 16.6599 4.41721 15.4814 4.41699Z"
    fill="currentColor"
  />
</svg>

<svg xmlns="http://www.w3.org/2000/svg" width="32" height="32" fill="none" data-fui-icon="true" viewBox="0 0 32 32"><path fill="currentColor" d="M15.481 2.917c2.095 0 3.706 1.87 3.382 3.943l-.633 4.057h6.116a4.75 4.75 0 0 1 4.696 5.465l-1.116 7.333a4.75 4.75 0 0 1-4.696 4.035H5a2.083 2.083 0 0 1-2.083-2.083v-10c0-1.15.933-2.083 2.083-2.083h3.715l4.913-9.538a2.09 2.09 0 0 1 1.853-1.129M5 15.084a.583.583 0 0 0-.583.583v10c0 .322.261.583.583.583h3.25V15.084zM15.481 4.417c-.22 0-.42.123-.52.316L9.75 14.85v11.4h13.48a3.25 3.25 0 0 0 3.212-2.76l1.117-7.334a3.25 3.25 0 0 0-3.213-3.739h-6.99a.753.753 0 0 1-.742-.865l.768-4.923a1.922 1.922 0 0 0-1.9-2.212"/></svg>
